packages/core/src/svgs/tokens/branded/META.svg

<svg width="24" height="24" viewBox="0 0 24 24" fill="none" xmlns="http://www.w3.org/2000/svg">
<path d="M4.99999 7.45999V9.53998C4.99999 9.78498 4.78499 9.99999 4.53999 9.99999H2.44999C2.2 9.99999 2 9.77996 2 9.53998V7.45999C2 7.21499 2.2 7 2.44999 7H4.53999C4.78999 7 4.99999 7.21499 4.99999 7.45999ZM8.04998 10.5H5.96999C5.71999 10.5 5.49999 10.76 5.49999 10.9999V16.5349C5.49999 16.785 5.72499 17 5.96999 17H8.04499C8.29498 17 8.49498 16.7449 8.49498 16.4999V10.9999C8.49498 10.7549 8.29498 10.5 8.04499 10.5H8.04998ZM13.315 10.5H15.015C15.265 10.5 15.4999 10.76 15.4999 11.005V16.5349C15.4999 16.7799 15.265 17 15.02 17H12.9399C12.69 17 12.5 16.7799 12.5 16.5349V11.45C12.5 10.8 11.765 10.005 11.1 10.005H9.44998C9.19998 10.005 8.99498 9.78999 8.99498 9.545V7.465C8.99498 7.22 9.19998 7.00499 9.44498 7.00499H11.56C11.81 7.00499 11.9949 7.22 11.9949 7.465V9.31505C11.9949 9.97503 12.645 10.505 13.31 10.505L13.315 10.5ZM19.815 10.5H21.5149C21.7649 10.5 22 10.76 22 11.005V16.5349C22 16.7799 21.7649 17 21.5199 17H19.44C19.19 17 18.9999 16.7799 18.9999 16.5349V11.45C18.9999 10.8 18.2649 10.005 17.5999 10.005H15.9499C15.7 10.005 15.4949 9.78999 15.4949 9.545V7.465C15.4949 7.22 15.7 7.00499 15.945 7.00499H18.0599C18.31 7.00499 18.495 7.22 18.495 7.465V9.31505C18.495 9.97503 19.1449 10.505 19.8099 10.505L19.815 10.5Z" fill="white"/>
</svg>

<svg xmlns="http://www.w3.org/2000/svg" width="24" height="24" fill="none" viewBox="0 0 24 24">
    <path fill="#fff" d="M5 7.46v2.08c0 .245-.215.46-.46.46H2.45C2.2 10 2 9.78 2 9.54V7.46c0-.245.2-.46.45-.46h2.09c.25 0 .46.215.46.46m3.05 3.04H5.97c-.25 0-.47.26-.47.5v5.535c0 .25.225.465.47.465h2.075c.25 0 .45-.255.45-.5V11c0-.245-.2-.5-.45-.5zm5.265 0h1.7c.25 0 .485.26.485.505v5.53c0 .245-.235.465-.48.465h-2.08c-.25 0-.44-.22-.44-.465V11.45c0-.65-.735-1.445-1.4-1.445H9.45a.464.464 0 0 1-.455-.46v-2.08c0-.245.205-.46.45-.46h2.115c.25 0 .435.215.435.46v1.85c0 .66.65 1.19 1.315 1.19zm6.5 0h1.7c.25 0 .485.26.485.505v5.53c0 .245-.235.465-.48.465h-2.08c-.25 0-.44-.22-.44-.465V11.45c0-.65-.735-1.445-1.4-1.445h-1.65a.464.464 0 0 1-.455-.46v-2.08c0-.245.205-.46.45-.46h2.115c.25 0 .435.215.435.46v1.85c0 .66.65 1.19 1.315 1.19z"/>
</svg>
